icons/stored-query-16.svg

<?xml version="1.0" encoding="UTF-8"?><svg id="icons" xmlns="http://www.w3.org/2000/svg" viewBox="0 0 16 16"><defs><style>.cls-1{fill:none;}.cls-1,.cls-2{stroke-width:0px;}</style></defs><rect class="cls-1" width="16" height="16"/><path class="cls-2" d="M3,4.90643c1.10126.67175,3.04523,1.07306,5.5,1.07306s4.39874-.40131,5.5-1.07306v3.09357h1V3.47949c0-1.49512-2.6123-2.47949-6.5-2.47949S2,1.98438,2,3.47949v3.35101c.32239-.07739.65424-.12933,1-.12933v-1.79474ZM8.5,1.97949c3.83887,0,5.5.99316,5.5,1.5s-1.66113,1.5-5.5,1.5-5.5-.99316-5.5-1.5,1.66113-1.5,5.5-1.5ZM13,14h-3v-1h3v1ZM7,9v3h1v4h7v-4h1v-3H7ZM14,15h-5v-3h5v3ZM15,11h-7v-1h7v1ZM7,14.29285l-1.6297-1.6297c.33148-.47144.52972-1.04309.52972-1.66315,0-1.60162-1.29846-2.90002-2.90002-2.90002S.09998,9.39838.09998,11s1.2984,2.89996,2.90002,2.89996c.62006,0,1.19171-.19824,1.66315-.52972l2.33685,2.33679v-1.41418ZM3,12.89996c-1.04755,0-1.90002-.85242-1.90002-1.89996s.85248-1.90002,1.90002-1.90002,1.90002.85248,1.90002,1.90002-.85248,1.89996-1.90002,1.89996Z"/></svg>

<svg xmlns="http://www.w3.org/2000/svg" viewBox="0 0 16 16"><path stroke-width="0" fill="none" d="M0 0h16v16H0z"/><path d="M3 4.906c1.101.672 3.045 1.073 5.5 1.073s4.399-.4 5.5-1.073V8h1V3.48C15 1.983 12.388 1 8.5 1S2 1.984 2 3.48v3.35a4.28 4.28 0 0 1 1-.129V4.906zM8.5 1.98c3.839 0 5.5.994 5.5 1.5s-1.661 1.5-5.5 1.5S3 3.986 3 3.48s1.661-1.5 5.5-1.5zM13 14h-3v-1h3v1zM7 9v3h1v4h7v-4h1V9H7zm7 6H9v-3h5v3zm1-4H8v-1h7v1zm-8 3.293l-1.63-1.63A2.88 2.88 0 0 0 5.9 11 2.9 2.9 0 1 0 3 13.9a2.88 2.88 0 0 0 1.663-.53L7 15.707v-1.414zM3 12.9c-1.048 0-1.9-.852-1.9-1.9S1.952 9.1 3 9.1s1.9.852 1.9 1.9-.852 1.9-1.9 1.9z" stroke-width="0"/></svg>
